svgs/light/face-icicles.svg

<svg xmlns="http://www.w3.org/2000/svg" viewBox="0 0 512 512"><!--! Font Awesome Pro 6.5.1 by @fontawesome - https://fontawesome.com License - https://fontawesome.com/license (Commercial License) Copyright 2023 Fonticons, Inc. --><path d="M256 32C132.3 32 32 132.3 32 256c0 .5 0 .9-.1 1.4L24.2 443.9c-.1 2.3-2 4.1-4.3 4.1c-2.2 0-4.1-1.7-4.2-3.9L.2 258.7c-.1-.9-.2-1.8-.2-2.7C0 114.6 114.6 0 256 0S512 114.6 512 256c0 .7 0 1.4-.1 2L496.2 508.1c-.1 2.2-2 3.9-4.2 3.9c-2.3 0-4.1-1.8-4.2-4.1L480 257c0-.3 0-.7 0-1C480 132.3 379.7 32 256 32zM168 320c-13.3 0-24 10.7-24 24s10.7 24 24 24h8V320h-8zm40 48h32V320H208v48zm96 0V320H272v48h32zm32 0h8c13.3 0 24-10.7 24-24s-10.7-24-24-24h-8v48zM168 288H344c30.9 0 56 25.1 56 56c0 15.7-6.4 29.8-16.8 40l-9.3 90.7c-.3 3-2.8 5.3-5.9 5.3s-5.6-2.3-5.9-5.3L354.4 399c-3.4 .6-6.8 1-10.4 1H317.3l-7.1 42.7c-.5 3-3.1 5.3-6.2 5.3s-5.7-2.2-6.2-5.3L290.7 400H168c-30.9 0-56-25.1-56-56s25.1-56 56-56zm-15.6-80a24 24 0 1 1 48 0 24 24 0 1 1 -48 0zm184-24a24 24 0 1 1 0 48 24 24 0 1 1 0-48zM256 512c-80.2 0-151.8-36.9-198.7-94.6l2.2-53.7C97.6 433 171.3 480 256 480c11.6 0 23-.9 34.1-2.6c4.3 1.7 9 2.6 13.9 2.6c9.7 0 18.7-3.6 25.5-9.7l.8 7.7c.8 7.7 3.9 14.7 8.5 20.3C312.8 507.2 285 512 256 512zm151.3-49.5l4.7-45.8c15.5-15 28.8-32.2 39.4-51.2l1.7 53.8c-13.4 16.2-28.8 30.7-45.8 43.1z"/></svg>

<svg xmlns="http://www.w3.org/2000/svg" viewBox="0 0 512 512"><!--! Font Awesome Pro 6.1.1 by @fontawesome - https://fontawesome.com License - https://fontawesome.com/license (Commercial License) Copyright 2022 Fonticons, Inc. --><path d="M256 32C132.3 32 32 132.3 32 256C32 256.5 31.98 256.9 31.94 257.4L24.17 443.9C24.08 446.2 22.2 448 19.92 448C17.7 448 15.86 446.3 15.67 444.1L.2234 258.7C.0765 257.8 0 256.9 0 256C0 114.6 114.6 0 256 0C397.4 0 512 114.6 512 256C512 256.7 511.1 257.4 511.9 258L496.2 508.1C496.1 510.3 494.3 512 492.1 512C489.8 512 487.9 510.2 487.9 507.9L480 257C480 256.7 480 256.3 480 256C480 132.3 379.7 32 256 32zM344 288C374.9 288 400 313.1 400 344C400 359.7 393.6 373.8 383.2 384L373.9 474.7C373.6 477.7 371 480 368 480C364.1 480 362.4 477.7 362.1 474.7L354.4 399C351 399.7 347.5 400 344 400H317.3L310.2 442.7C309.7 445.8 307.1 448 304 448C300.9 448 298.3 445.8 297.8 442.7L290.7 400H168C137.1 400 112 374.9 112 344C112 313.1 137.1 288 168 288H344zM168 320C154.7 320 144 330.7 144 344C144 357.3 154.7 368 168 368H176V320H168zM208 368H240V320H208V368zM304 320H272V368H304V320zM336 368H344C357.3 368 368 357.3 368 344C368 330.7 357.3 320 344 320H336V368zM200.4 208C200.4 221.3 189.6 232 176.4 232C163.1 232 152.4 221.3 152.4 208C152.4 194.7 163.1 184 176.4 184C189.6 184 200.4 194.7 200.4 208zM312.4 208C312.4 194.7 323.1 184 336.4 184C349.6 184 360.4 194.7 360.4 208C360.4 221.3 349.6 232 336.4 232C323.1 232 312.4 221.3 312.4 208zM255.1 512C175.8 512 104.2 475.1 57.3 417.4L59.54 363.7C97.62 433 171.3 480 255.1 480C267.6 480 279 479.1 290.1 477.4C294.5 479.1 299.1 480 304 480C313.7 480 322.7 476.4 329.5 470.3L330.3 477.1C331.1 485.7 334.2 492.7 338.8 498.3C312.8 507.2 284.1 512 255.1 512zM407.3 462.5L411.1 416.8C427.5 401.7 440.8 384.5 451.4 365.6L453.1 419.4C439.7 435.6 424.3 450.1 407.3 462.5V462.5z"/></svg>
